svg/silverware.svg

<svg xmlns="http://www.w3.org/2000/svg" viewBox="0 0 24 24"><path d="M8.1 13.34 3.91 9.16a4.01 4.01 0 0 1 0-5.66l7.02 7zm6.78-1.81L13.41 13l6.88 6.88-1.41 1.41L12 14.41l-6.88 6.88-1.41-1.41 9.76-9.76c-.71-1.53-.21-3.68 1.38-5.27 1.91-1.92 4.65-2.28 6.11-.82 1.47 1.47 1.11 4.21-.81 6.12-1.59 1.59-3.74 2.09-5.27 1.38"/></svg>

<?xml version="1.0" encoding="UTF-8"?><!DOCTYPE svg PUBLIC "-//W3C//DTD SVG 1.1//EN" "http://www.w3.org/Graphics/SVG/1.1/DTD/svg11.dtd"><svg xmlns="http://www.w3.org/2000/svg" xmlns:xlink="http://www.w3.org/1999/xlink" version="1.1" id="mdi-silverware" width="24" height="24" viewBox="0 0 24 24"><path d="M8.1,13.34L3.91,9.16C2.35,7.59 2.35,5.06 3.91,3.5L10.93,10.5L8.1,13.34M14.88,11.53L13.41,13L20.29,19.88L18.88,21.29L12,14.41L5.12,21.29L3.71,19.88L13.47,10.12C12.76,8.59 13.26,6.44 14.85,4.85C16.76,2.93 19.5,2.57 20.96,4.03C22.43,5.5 22.07,8.24 20.15,10.15C18.56,11.74 16.41,12.24 14.88,11.53Z" /></svg>
